cursors/src/svg/down-arrow.svg

<?xml version="1.0" encoding="UTF-8" standalone="no"?>
<svg
   xmlns:dc="http://purl.org/dc/elements/1.1/"
   xmlns:cc="http://creativecommons.org/ns#"
   xmlns:rdf="http://www.w3.org/1999/02/22-rdf-syntax-ns#"
   xmlns:svg="http://www.w3.org/2000/svg"
   xmlns="http://www.w3.org/2000/svg"
   xmlns:sodipodi="http://sodipodi.sourceforge.net/DTD/sodipodi-0.dtd"
   xmlns:inkscape="http://www.inkscape.org/namespaces/inkscape"
   width="32"
   height="32"
   version="1.1"
   viewBox="0 0 32 32"
   id="svg21"
   sodipodi:docname="down-arrow.svg"
   inkscape:version="0.92.4 5da689c313, 2019-01-14">
  <metadata
     id="metadata25">
    <rdf:RDF>
      <cc:Work
         rdf:about="">
        <dc:format>image/svg+xml</dc:format>
        <dc:type
           rdf:resource="http://purl.org/dc/dcmitype/StillImage" />
      </cc:Work>
    </rdf:RDF>
  </metadata>
  <sodipodi:namedview
     pagecolor="#ffffff"
     bordercolor="#666666"
     borderopacity="1"
     objecttolerance="10"
     gridtolerance="10"
     guidetolerance="10"
     inkscape:pageopacity="0"
     inkscape:pageshadow="2"
     inkscape:window-width="1366"
     inkscape:window-height="705"
     id="namedview23"
     showgrid="true"
     inkscape:zoom="42.209631"
     inkscape:cx="15.579789"
     inkscape:cy="1.281804"
     inkscape:window-x="0"
     inkscape:window-y="34"
     inkscape:window-maximized="1"
     inkscape:current-layer="svg21">
    <inkscape:grid
       type="xygrid"
       id="grid838" />
  </sodipodi:namedview>
  <defs
     id="defs5">
    <filter
       id="a"
       x="-.11901"
       y="-.12101"
       width="1.238"
       height="1.242"
       color-interpolation-filters="sRGB">
      <feGaussianBlur
         stdDeviation="0.73740225"
         id="feGaussianBlur2" />
    </filter>
    <filter
       inkscape:collect="always"
       style="color-interpolation-filters:sRGB"
       id="filter884"
       x="-0.10363341"
       width="1.2072668"
       y="-0.14250559"
       height="1.2850112">
      <feGaussianBlur
         inkscape:collect="always"
         stdDeviation="0.95002128"
         id="feGaussianBlur886" />
    </filter>
  </defs>
  <path
     id="path834"
     d="M 16.951172,8.7214953 A 1.0001,1.0001 0 0 0 16.525391,8.8386828 L 3.5253905,15.838683 a 1.0001,1.0001 0 0 0 0,1.761718 l 13.0000005,7 a 1.0001,1.0001 0 0 0 1.289062,-0.300781 l 2.095703,-2.935547 A 1.0001,1.0001 0 0 0 19.675781,19.969542 C 18.625246,19.219899 18.00269,18.011905 18,16.721495 v -0.002 c 0,0 0,-0.002 0,-0.002 0.0036,-1.290139 0.627057,-2.497112 1.677734,-3.246094 a 1.0001,1.0001 0 0 0 0.234375,-1.396484 L 17.814453,9.137511 A 1.0001,1.0001 0 0 0 16.951172,8.7214953 Z m -0.253906,2.2968747 1.144531,1.603516 C 16.752716,13.731293 16.00282,15.136295 16,16.717589 a 1.0001,1.0001 0 0 0 0,0.0039 c 0.0018,1.582245 0.752279,2.987337 1.841797,4.097656 L 16.697266,22.420714 6.111328,16.719542 Z M 22,13.719542 c -1.64501,0 -3,1.35499 -3,3 0,1.64501 1.35499,3 3,3 1.64501,0 3,-1.35499 3,-3 0,-1.64501 -1.35499,-3 -3,-3 z m 0,2 c 0.564129,0 1,0.435871 1,1 0,0.564129 -0.435871,1 -1,1 -0.564129,0 -1,-0.435871 -1,-1 0,-0.564129 0.435871,-1 1,-1 z"
     style="color:#000000;font-style:normal;font-variant:normal;font-weight:normal;font-stretch:normal;font-size:medium;line-height:normal;font-family:sans-serif;font-variant-ligatures:normal;font-variant-position:normal;font-variant-caps:normal;font-variant-numeric:normal;font-variant-alternates:normal;font-feature-settings:normal;text-indent:0;text-align:start;text-decoration:none;text-decoration-line:none;text-decoration-style:solid;text-decoration-color:#000000;letter-spacing:normal;word-spacing:normal;text-transform:none;writing-mode:lr-tb;direction:ltr;text-orientation:mixed;dominant-baseline:auto;baseline-shift:baseline;text-anchor:start;white-space:normal;shape-padding:0;clip-rule:nonzero;display:inline;overflow:visible;visibility:visible;opacity:0.35;isolation:auto;mix-blend-mode:normal;color-interpolation:sRGB;color-interpolation-filters:linearRGB;solid-color:#000000;solid-opacity:1;vector-effect:none;fill:#000000;fill-opacity:1;fill-rule:nonzero;stroke:none;stroke-width:2;stroke-linecap:round;stroke-linejoin:round;stroke-miterlimit:4;stroke-dasharray:none;stroke-dashoffset:0;stroke-opacity:1;paint-order:stroke fill markers;filter:url(#filter884);color-rendering:auto;image-rendering:auto;shape-rendering:auto;text-rendering:auto;enable-background:accumulate"
     inkscape:connector-curvature="0"
     transform="rotate(-90,16.195623,16.915706)" />
  <path
     inkscape:connector-curvature="0"
     style="color:#000000;font-style:normal;font-variant:normal;font-weight:normal;font-stretch:normal;font-size:medium;line-height:normal;font-family:sans-serif;font-variant-ligatures:normal;font-variant-position:normal;font-variant-caps:normal;font-variant-numeric:normal;font-variant-alternates:normal;font-feature-settings:normal;text-indent:0;text-align:start;text-decoration:none;text-decoration-line:none;text-decoration-style:solid;text-decoration-color:#000000;letter-spacing:normal;word-spacing:normal;text-transform:none;writing-mode:lr-tb;direction:ltr;text-orientation:mixed;dominant-baseline:auto;baseline-shift:baseline;text-anchor:start;white-space:normal;shape-padding:0;clip-rule:nonzero;display:inline;overflow:visible;visibility:visible;opacity:1;isolation:auto;mix-blend-mode:normal;color-interpolation:sRGB;color-interpolation-filters:linearRGB;solid-color:#000000;solid-opacity:1;vector-effect:none;fill:#ffffff;fill-opacity:1;fill-rule:nonzero;stroke:none;stroke-width:2;stroke-linecap:round;stroke-linejoin:round;stroke-miterlimit:4;stroke-dasharray:none;stroke-dashoffset:0;stroke-opacity:1;paint-order:stroke fill markers;color-rendering:auto;image-rendering:auto;shape-rendering:auto;text-rendering:auto;enable-background:accumulate"
     d="M 8.0014125,15.048808 A 1.0001,1.0001 0 0 0 8.1186,15.474589 l 7,13.000001 a 1.0001,1.0001 0 0 0 1.761718,0 l 7,-13.000001 A 1.0001,1.0001 0 0 0 23.579537,14.185527 L 20.64399,12.089824 a 1.0001,1.0001 0 0 0 -1.394531,0.234375 c -0.749643,1.050535 -1.957637,1.673091 -3.248047,1.675781 h -0.002 c 0,0 -0.002,0 -0.002,0 -1.290139,-0.0036 -2.497112,-0.627057 -3.246094,-1.677734 a 1.0001,1.0001 0 0 0 -1.396487,-0.234375 l -2.9374028,2.097656 a 1.0001,1.0001 0 0 0 -0.4160157,0.863281 z m 2.2968745,0.253906 1.603516,-1.144531 c 1.109407,1.089081 2.514409,1.838977 4.095703,1.841797 a 1.0001,1.0001 0 0 0 0.0039,0 c 1.582245,-0.0018 2.987337,-0.752279 4.097656,-1.841797 l 1.601569,1.144531 -5.701172,10.585938 z M 12.999459,9.99998 c 0,1.64501 1.35499,3 3,3 1.64501,0 3,-1.35499 3,-3 0,-1.64501 -1.35499,-3 -3,-3 -1.64501,0 -3,1.35499 -3,3 z m 2,0 c 0,-0.564129 0.435871,-1 1,-1 0.564129,0 1,0.435871 1,1 0,0.564129 -0.435871,1 -1,1 -0.564129,0 -1,-0.435871 -1,-1 z"
     id="path825" />
  <g
     id="g836"
     transform="rotate(-90,16,16)">
    <path
       id="rect835"
       d="M 17,9.0000001 3.9999999,16 17,23 19.095703,20.064453 A 5,5 0 0 1 17,16 5,5 0 0 1 19.097656,11.9375 Z"
       style="opacity:1;fill:#333333;fill-opacity:1;stroke:none;stroke-width:1.99273682;stroke-linecap:round;stroke-linejoin:round;stroke-miterlimit:4;stroke-dasharray:none;stroke-opacity:1;paint-order:stroke fill markers"
       inkscape:connector-curvature="0" />
    <circle
       style="opacity:1;fill:#0078d4;fill-opacity:1;stroke:none;stroke-width:0.8888889;stroke-linecap:round;stroke-linejoin:round;stroke-miterlimit:4;stroke-dasharray:none;stroke-opacity:1;paint-order:stroke fill markers"
       id="circle822"
       cx="22"
       cy="16"
       r="2" />
  </g>
</svg>

<?xml version="1.0" encoding="UTF-8" standalone="no"?>
<!DOCTYPE svg PUBLIC "-//W3C//DTD SVG 1.1//EN" "http://www.w3.org/Graphics/SVG/1.1/DTD/svg11.dtd">
<svg width="100%" height="100%" viewBox="0 0 32 32" version="1.1" xmlns="http://www.w3.org/2000/svg" xmlns:xlink="http://www.w3.org/1999/xlink" xml:space="preserve" xmlns:serif="http://www.serif.com/" style="fill-rule:evenodd;clip-rule:evenodd;stroke-linejoin:round;stroke-miterlimit:2;">
    <use id="path834" xlink:href="#_Image1" x="5.15" y="5.261" width="22px" height="27px"/>
    <path id="path825" d="M8.001,15.049C8.008,15.198 8.048,15.343 8.119,15.475L15.119,28.475C15.293,28.798 15.632,29.001 15.999,29.001C16.367,29.001 16.706,28.798 16.88,28.475L23.88,15.475C24.118,15.033 23.989,14.477 23.58,14.186L20.644,12.09C20.197,11.772 19.568,11.877 19.249,12.324C18.5,13.375 17.292,13.997 16.001,14L15.997,14C14.707,13.996 13.5,13.373 12.751,12.322C12.564,12.059 12.26,11.902 11.936,11.902C11.728,11.902 11.524,11.967 11.355,12.088L8.417,14.186C8.141,14.384 7.984,14.709 8.001,15.049ZM10.298,15.303L11.902,14.158C13.011,15.247 14.416,15.997 15.998,16C15.999,16 16,16 16.001,16C17.584,15.998 18.989,15.248 20.099,14.158L21.701,15.303L15.999,25.889L10.298,15.303ZM12.999,10C12.999,11.645 14.354,13 15.999,13C17.644,13 18.999,11.645 18.999,10C18.999,8.355 17.644,7 15.999,7C14.354,7 12.999,8.355 12.999,10ZM14.999,10C14.999,9.436 15.435,9 15.999,9C16.564,9 16.999,9.436 16.999,10C16.999,10.564 16.564,11 15.999,11C15.435,11 14.999,10.564 14.999,10Z" style="fill:white;fill-rule:nonzero;"/>
    <g id="g836" transform="matrix(-3.82857e-16,-1,1,-3.82857e-16,5.32907e-15,32)">
        <path id="rect835" d="M17,9L4,16L17,23L19.096,20.064C17.783,19.128 17.002,17.612 17,16C17.003,14.388 17.785,12.873 19.098,11.938L17,9Z" style="fill-rule:nonzero;"/>
        <circle id="circle822" cx="22" cy="16" r="2" style="fill:rgb(0,120,212);"/>
    </g>
    <defs>
        <image id="_Image1" width="22px" height="27px" xlink:href="data:image/png;base64,iVBORw0KGgoAAAANSUhEUgAAABYAAAAbCAYAAAB4Kn/lAAAACXBIWXMAAA7EAAAOxAGVKw4bAAAB1UlEQVRIiZVW7ZKCMBBLoYBf9/4PeqcHKHA/SGyAil5ndgrSDWk2Wwx4PwJDY1rNL5PeAZYMrR0BDIyX4OUOcAEgAmgAHBn1KuffwIGgBwAXAF+cD5YzMrIj7gCXZHsicE2GkfOdkQXPAQckGWqCN7wWy473vf22kMWBvVgVEyuuKVYv1fOGgA+spCkzCQdu/4y5YA2SKyYL5YTVsyewg56QinUyUBFQou8sGrAkmSSFCnUmqFe/wLYpRCRy1tpB4HpbQc2OBI1ITSAgvUBaBgM+Yi5ky3lRvMJi4KKOYAVZTUgdV5JEbc+f7S9PqrIDZ2D26C9n6So5AqWLBHxg5QwxHgjQIrWtCtIxyfWV1UCgnuvuIuq6SSNtX/pJmh6p0+QIse2MwKi3a3ta0PJaTnEfq2DqxGA77U3/zSHknhZb76yI2QEXgo+sw5Wk5KLs6SbzSwrpOPFeHVkQ7IpU5EXn5YY3gDeKzuaK7G4E1mH0HDlg2UkFquxammPF1l2zy1gMc0enCnYl4w1bJecYy14tQdQQNdf4s81Z/I4xsDwPIpILvvfYfgIMLA8g6fqDZK/sB/UTYJDVg2xvyNhrPfb+V4httFCz3PfYfgIcLCSHfylejj+mzrEEtbNC4AAAAABJRU5ErkJggg=="/>
    </defs>
</svg>
